Icons/com_vkontakte_android.svg

<svg viewBox="0 0 48 48" xmlns:xlink="http://www.w3.org/1999/xlink">
 <defs>
  <linearGradient id="0">
   <stop stop-opacity="0"/>
   <stop offset="1"/>
  </linearGradient>
  <linearGradient xlink:href="#0" id="1" gradientUnits="userSpaceOnUse" gradientTransform="translate(4e-7,-48)" y1="47" x2="0" y2="1"/>
  <clipPath id="2">
   <g transform="translate(0,-1004.3622)">
    <rect rx="4" y="1005.36" x="1" height="46" width="46" fill="#1890d0"/>
   </g>
  </clipPath>
  <clipPath id="3">
   <g transform="translate(0,-1004.3622)">
    <rect rx="4" y="1005.36" x="1" height="46" width="46" fill="#1890d0"/>
   </g>
  </clipPath>
 </defs>
 <g>
  <g transform="translate(0,-1004.3622)">
   <path d="m 5,1006.3622 c -2.216,0 -4,1.784 -4,4 l 0,37.25 c 0,2.216 1.784,4 4,4 l 38,0 c 2.216,0 4,-1.784 4,-4 l 0,-37.25 c 0,-2.216 -1.784,-4 -4,-4 l -38,0 z m -4,41.5 0,0.5 c 0,2.216 1.784,4 4,4 l 38,0 c 2.216,0 4,-1.784 4,-4 l 0,-0.5 c 0,2.216 -1.784,4 -4,4 l -38,0 c -2.216,0 -4,-1.784 -4,-4 z" opacity="0.02"/>
   <path d="m 1,1047.6122 0,0.25 c 0,2.216 1.784,4 4,4 l 38,0 c 2.216,0 4,-1.784 4,-4 l 0,-0.25 c 0,2.216 -1.784,4 -4,4 l -38,0 c -2.216,0 -4,-1.784 -4,-4 z" opacity="0.05"/>
   <rect width="46" height="46" x="1" y="1005.61" rx="4" opacity="0.1"/>
  </g>
 </g>
 <g>
  <g transform="translate(0,-1004.3622)">
   <rect rx="4" y="1005.36" x="1" height="46" width="46" fill="#6f8dad"/>
  </g>
 </g>
 <g>
  <rect transform="scale(1,-1)" width="46" height="46" x="1" y="-46.998" rx="4" opacity="0.1" fill="url(#1)"/>
 </g>
 <g>
  <g clip-path="url(#2)">
   <g opacity="0.1">
    <g>
     <path d="M 22.675781 33.925781 L 24.46875 33.925781 C 24.46875 33.925781 25.011719 33.863281 25.289062 33.546875 C 25.542969 33.261719 25.535156 32.71875 25.535156 32.71875 C 25.535156 32.71875 25.5 30.191406 26.617188 29.816406 C 27.71875 29.449219 29.128906 32.261719 30.628906 33.34375 C 31.761719 34.164062 32.621094 33.984375 32.621094 33.984375 L 36.628906 33.925781 C 36.628906 33.925781 38.722656 33.789062 37.730469 32.054688 C 37.648438 31.914062 37.152344 30.773438 34.75 28.429688 C 32.238281 25.980469 32.574219 26.375 35.601562 22.132812 C 37.445312 19.550781 38.179688 17.972656 37.949219 17.296875 C 37.730469 16.65625 36.375 16.824219 36.375 16.824219 L 31.867188 16.855469 C 31.867188 16.855469 31.53125 16.804688 31.285156 16.960938 C 31.039062 17.113281 30.886719 17.472656 30.886719 17.472656 C 30.886719 17.472656 30.171875 19.46875 29.21875 21.171875 C 27.210938 24.757812 26.40625 24.945312 26.078125 24.722656 C 25.316406 24.203125 25.507812 22.636719 25.507812 21.527344 C 25.507812 18.050781 26.007812 16.601562 24.53125 16.226562 C 24.039062 16.101562 23.679688 16.019531 22.425781 16.003906 C 20.816406 15.988281 19.453125 16.011719 18.683594 16.40625 C 18.167969 16.671875 17.773438 17.261719 18.015625 17.292969 C 18.3125 17.335938 18.988281 17.484375 19.34375 18 C 19.808594 18.660156 19.792969 20.144531 19.792969 20.144531 C 19.792969 20.144531 20.058594 24.238281 19.171875 24.746094 C 18.5625 25.09375 17.730469 24.382812 15.9375 21.128906 C 15.019531 19.460938 14.328125 17.617188 14.328125 17.617188 C 14.328125 17.617188 14.195312 17.273438 13.957031 17.089844 C 13.667969 16.867188 13.265625 16.796875 13.265625 16.796875 L 8.976562 16.824219 C 8.976562 16.824219 8.335938 16.84375 8.097656 17.136719 C 7.886719 17.398438 8.082031 17.941406 8.082031 17.941406 C 8.082031 17.941406 11.4375 26.199219 15.238281 30.359375 C 18.722656 34.175781 22.675781 33.925781 22.675781 33.925781 " fill-rule="evenodd"/>
    </g>
   </g>
  </g>
 </g>
 <g>
  <g clip-path="url(#3)">
   <g transform="translate(0,-1)">
    <g>
     <path d="M 22.675781 33.925781 L 24.46875 33.925781 C 24.46875 33.925781 25.011719 33.863281 25.289062 33.546875 C 25.542969 33.261719 25.535156 32.71875 25.535156 32.71875 C 25.535156 32.71875 25.5 30.191406 26.617188 29.816406 C 27.71875 29.449219 29.128906 32.261719 30.628906 33.34375 C 31.761719 34.164062 32.621094 33.984375 32.621094 33.984375 L 36.628906 33.925781 C 36.628906 33.925781 38.722656 33.789062 37.730469 32.054688 C 37.648438 31.914062 37.152344 30.773438 34.75 28.429688 C 32.238281 25.980469 32.574219 26.375 35.601562 22.132812 C 37.445312 19.550781 38.179688 17.972656 37.949219 17.296875 C 37.730469 16.65625 36.375 16.824219 36.375 16.824219 L 31.867188 16.855469 C 31.867188 16.855469 31.53125 16.804688 31.285156 16.960938 C 31.039062 17.113281 30.886719 17.472656 30.886719 17.472656 C 30.886719 17.472656 30.171875 19.46875 29.21875 21.171875 C 27.210938 24.757812 26.40625 24.945312 26.078125 24.722656 C 25.316406 24.203125 25.507812 22.636719 25.507812 21.527344 C 25.507812 18.050781 26.007812 16.601562 24.53125 16.226562 C 24.039062 16.101562 23.679688 16.019531 22.425781 16.003906 C 20.816406 15.988281 19.453125 16.011719 18.683594 16.40625 C 18.167969 16.671875 17.773438 17.261719 18.015625 17.292969 C 18.3125 17.335938 18.988281 17.484375 19.34375 18 C 19.808594 18.660156 19.792969 20.144531 19.792969 20.144531 C 19.792969 20.144531 20.058594 24.238281 19.171875 24.746094 C 18.5625 25.09375 17.730469 24.382812 15.9375 21.128906 C 15.019531 19.460938 14.328125 17.617188 14.328125 17.617188 C 14.328125 17.617188 14.195312 17.273438 13.957031 17.089844 C 13.667969 16.867188 13.265625 16.796875 13.265625 16.796875 L 8.976562 16.824219 C 8.976562 16.824219 8.335938 16.84375 8.097656 17.136719 C 7.886719 17.398438 8.082031 17.941406 8.082031 17.941406 C 8.082031 17.941406 11.4375 26.199219 15.238281 30.359375 C 18.722656 34.175781 22.675781 33.925781 22.675781 33.925781 " fill="#ffffff" fill-rule="evenodd"/>
    </g>
   </g>
  </g>
 </g>
 <g>
  <g transform="translate(0,-1004.3622)">
   <path d="m 1,1043.3622 0,4 c 0,2.216 1.784,4 4,4 l 38,0 c 2.216,0 4,-1.784 4,-4 l 0,-4 c 0,2.216 -1.784,4 -4,4 l -38,0 c -2.216,0 -4,-1.784 -4,-4 z" opacity="0.1"/>
  </g>
 </g>
</svg>

<svg viewBox="0 0 48 48"><defs><linearGradient id="linearGradient3764" x1="1" x2="47" gradientUnits="userSpaceOnUse" gradientTransform="translate(-48.000001,0.00221467)"><stop stop-color="#6284a6" stop-opacity="1"/><stop offset="1" stop-color="#6f8dad" stop-opacity="1"/></linearGradient><clipPath id="clipPath-415558684"><g transform="translate(0,-1004.3622)"><rect rx="4" y="1005.36" x="1" height="46" width="46" fill="#1890d0"/></g></clipPath><clipPath id="clipPath-431398670"><g transform="translate(0,-1004.3622)"><rect rx="4" y="1005.36" x="1" height="46" width="46" fill="#1890d0"/></g></clipPath></defs><g><path d="m 1 43 l 0 0.25 c 0 2.216 1.784 4 4 4 l 38 0 c 2.216 0 4 -1.784 4 -4 l 0 -0.25 c 0 2.216 -1.784 4 -4 4 l -38 0 c -2.216 0 -4 -1.784 -4 -4 z m 0 0.5 l 0 0.5 c 0 2.216 1.784 4 4 4 l 38 0 c 2.216 0 4 -1.784 4 -4 l 0 -0.5 c 0 2.216 -1.784 4 -4 4 l -38 0 c -2.216 0 -4 -1.784 -4 -4 z" opacity="0.02"/><path d="m 1 43.25 l 0 0.25 c 0 2.216 1.784 4 4 4 l 38 0 c 2.216 0 4 -1.784 4 -4 l 0 -0.25 c 0 2.216 -1.784 4 -4 4 l -38 0 c -2.216 0 -4 -1.784 -4 -4 z" opacity="0.05"/><path d="m 1 43 l 0 0.25 c 0 2.216 1.784 4 4 4 l 38 0 c 2.216 0 4 -1.784 4 -4 l 0 -0.25 c 0 2.216 -1.784 4 -4 4 l -38 0 c -2.216 0 -4 -1.784 -4 -4 z" opacity="0.1"/></g><g><rect width="46" height="46" x="-47" y="1" rx="4" transform="matrix(0,-1,1,0,0,0)" fill="url(#linearGradient3764)" fill-opacity="1"/></g><g><g clip-path="url(#clipPath-415558684)"><g opacity="0.1"><!-- color: #6f8dad --><g><path d="m 22.676 33.926 l 1.793 0 c 0 0 0.543 -0.063 0.82 -0.379 c 0.254 -0.285 0.246 -0.828 0.246 -0.828 c 0 0 -0.035 -2.527 1.082 -2.902 c 1.102 -0.367 2.512 2.445 4.01 3.527 c 1.133 0.82 1.992 0.641 1.992 0.641 l 4.01 -0.059 c 0 0 2.094 -0.137 1.102 -1.871 c -0.082 -0.141 -0.578 -1.281 -2.98 -3.625 c -2.512 -2.449 -2.176 -2.055 0.852 -6.297 c 1.844 -2.582 2.578 -4.16 2.348 -4.836 c -0.219 -0.641 -1.574 -0.473 -1.574 -0.473 l -4.508 0.031 c 0 0 -0.336 -0.051 -0.582 0.105 c -0.246 0.152 -0.398 0.512 -0.398 0.512 c 0 0 -0.715 1.996 -1.668 3.699 c -2.01 3.586 -2.813 3.773 -3.141 3.551 c -0.762 -0.52 -0.57 -2.086 -0.57 -3.195 c 0 -3.477 0.5 -4.926 -0.977 -5.301 c -0.492 -0.125 -0.852 -0.207 -2.105 -0.223 c -1.609 -0.016 -2.973 0.008 -3.742 0.402 c -0.516 0.266 -0.91 0.855 -0.668 0.887 c 0.297 0.043 0.973 0.191 1.328 0.707 c 0.465 0.66 0.449 2.145 0.449 2.145 c 0 0 0.266 4.094 -0.621 4.602 c -0.609 0.348 -1.441 -0.363 -3.234 -3.617 c -0.918 -1.668 -1.609 -3.512 -1.609 -3.512 c 0 0 -0.133 -0.344 -0.371 -0.527 c -0.289 -0.223 -0.691 -0.293 -0.691 -0.293 l -4.289 0.027 c 0 0 -0.641 0.02 -0.879 0.313 c -0.211 0.262 -0.016 0.805 -0.016 0.805 c 0 0 3.355 8.258 7.156 12.418 c 3.484 3.816 7.438 3.566 7.438 3.566" fill-rule="evenodd" fill="#000"/></g></g></g></g><g><g clip-path="url(#clipPath-431398670)"><g transform="translate(0,-1)"><!-- color: #6f8dad --><g><path d="m 22.676 33.926 l 1.793 0 c 0 0 0.543 -0.063 0.82 -0.379 c 0.254 -0.285 0.246 -0.828 0.246 -0.828 c 0 0 -0.035 -2.527 1.082 -2.902 c 1.102 -0.367 2.512 2.445 4.01 3.527 c 1.133 0.82 1.992 0.641 1.992 0.641 l 4.01 -0.059 c 0 0 2.094 -0.137 1.102 -1.871 c -0.082 -0.141 -0.578 -1.281 -2.98 -3.625 c -2.512 -2.449 -2.176 -2.055 0.852 -6.297 c 1.844 -2.582 2.578 -4.16 2.348 -4.836 c -0.219 -0.641 -1.574 -0.473 -1.574 -0.473 l -4.508 0.031 c 0 0 -0.336 -0.051 -0.582 0.105 c -0.246 0.152 -0.398 0.512 -0.398 0.512 c 0 0 -0.715 1.996 -1.668 3.699 c -2.01 3.586 -2.813 3.773 -3.141 3.551 c -0.762 -0.52 -0.57 -2.086 -0.57 -3.195 c 0 -3.477 0.5 -4.926 -0.977 -5.301 c -0.492 -0.125 -0.852 -0.207 -2.105 -0.223 c -1.609 -0.016 -2.973 0.008 -3.742 0.402 c -0.516 0.266 -0.91 0.855 -0.668 0.887 c 0.297 0.043 0.973 0.191 1.328 0.707 c 0.465 0.66 0.449 2.145 0.449 2.145 c 0 0 0.266 4.094 -0.621 4.602 c -0.609 0.348 -1.441 -0.363 -3.234 -3.617 c -0.918 -1.668 -1.609 -3.512 -1.609 -3.512 c 0 0 -0.133 -0.344 -0.371 -0.527 c -0.289 -0.223 -0.691 -0.293 -0.691 -0.293 l -4.289 0.027 c 0 0 -0.641 0.02 -0.879 0.313 c -0.211 0.262 -0.016 0.805 -0.016 0.805 c 0 0 3.355 8.258 7.156 12.418 c 3.484 3.816 7.438 3.566 7.438 3.566" fill="#fff" fill-rule="evenodd"/></g></g></g></g><g><g transform="translate(0,-1004.3622)"><path d="m 1 1043.36 0 4 c 0 2.216 1.784 4 4 4 l 38 0 c 2.216 0 4 -1.784 4 -4 l 0 -4 c 0 2.216 -1.784 4 -4 4 l -38 0 c -2.216 0 -4 -1.784 -4 -4 z" opacity="0.1"/></g></g></svg>
